packages/kaspersky-hexa-ui-icons/src/iconsSVGs/24/Union.svg

<svg width="24" height="24" viewBox="0 0 24 24" fill="none" xmlns="http://www.w3.org/2000/svg">
<path fill-rule="evenodd" clip-rule="evenodd" d="M10 3C8.69378 3 7.58254 3.83481 7.17071 5H18C18.5523 5 19 5.44772 19 6V14C19 14.5523 18.5523 15 18 15H17V10C17 8.34315 15.6569 7 14 7H6C4.34315 7 3 8.34315 3 10V18C3 19.6569 4.34315 21 6 21H14C15.6569 21 17 19.6569 17 18V17H18C19.6569 17 21 15.6569 21 14V6C21 4.34315 19.6569 3 18 3H10ZM7 9H6C5.44772 9 5 9.44772 5 10V18C5 18.5523 5.44772 19 6 19H14C14.5523 19 15 18.5523 15 18V10C15 9.44772 14.5523 9 14 9H9V14C9 14.5523 9.44772 15 10 15H13V17H10C8.34315 17 7 15.6569 7 14V9Z" fill="black"/>
</svg>

<svg xmlns="http://www.w3.org/2000/svg" width="24" height="24" fill="none" viewBox="0 0 24 24"><path fill="#000" fill-rule="evenodd" d="M10 3c-1.3062 0-2.4175.8348-2.8293 2H18c.5523 0 1 .4477 1 1v8c0 .5523-.4477 1-1 1h-1v-5c0-1.6569-1.3431-3-3-3H6c-1.6569 0-3 1.3431-3 3v8c0 1.6569 1.3431 3 3 3h8c1.6569 0 3-1.3431 3-3v-1h1c1.6569 0 3-1.3431 3-3V6c0-1.6569-1.3431-3-3-3zM7 9H6c-.5523 0-1 .4477-1 1v8c0 .5523.4477 1 1 1h8c.5523 0 1-.4477 1-1v-8c0-.5523-.4477-1-1-1H9v5c0 .5523.4477 1 1 1h3v2h-3c-1.6569 0-3-1.3431-3-3z"/></svg>
